X: 21203
T: POP GOES THE WEASEL -- Reel -- Original Tune
R: reel
B: K\"ohler's Violin Repository, v.2, 1885 p.120 #3
F: http://www.archive.org/details/klersviolinrepos02rugg
Z: 2012 John Chambers <jc:trillian.mit.edu>
M: C|
L: 1/8
K: A
((3uefg) !segno!|\
a2fa g2eg | a2fa g2ec | (dc)de (fg)af | (ef)ed (dc)BA |
a2fa g2eg | a2fa g2ec | (dc)de (fg)a2 | "^Pizz.""_Pop."e2vBd c2A2 |]
vEAcA BAcA | EAcA ~B2A2 | EAcA Bcdf | (ef)ed (dc)BA |
 EAcA BAcA | EAcA ~B2A2 | EAcA Bdd2 | "^Pizz.""_Pop."e2vBd c2A2 !segno!"_D.C."|]

%%sep 2 1 500

